X: 28803
T: My Mind Will Never Be Easy
R: slip jig
M: 9/8
K: Amajor
|:ag|fec cBc A2B|c2e efc eag|fec cBc A2B|1 c2f fge f:|2 c2f fge f2f||
|:efg a2a gfe|c2e efc e2c|efa baf ecB|1 c2f fge f2f:|2 c2f fge f||

